X: 136
T: Ayrılık Büküverdi Boynumu
C: Ârif Sâmi Toker
O: Turkey
F: http://compmusic.upf.edu/node/140
N: nihavent--sarki--duyek--ayrilik_bukuverdi--arif_sami_toker
N: makam= nihavent
N: form= sarki
N: usul= duyek = 8/4
M: 8/4
L: 1/16
K: C _B _e  
Q: 1/4=144
%%MIDI tuningsystem comma53
z2 G2 A2 B2 G2 A2 B2 c2  | cB A8-A2 z4  | \
w:   |   | 
z2 A2 B2 c2 A2 B2 c2 d2  | 
w:   | 
fe d6 z8  | z2 g2 a2 b2 z2 e2 f2 g2  | \
w:   |   | 
z2 d2 e2 f2 z2 c2 d2 e2  | z2 A2 B2 c2 d2 A2 B4  | 
w:   |   | 
^F2 G8-G2 z4  | z2 G2 A2 B2 G2 A2 B2 c2  | \
w:   |   | 
cB A8-A2 z4  | z2 A2 B2 c2 A2 B2 c2 d2  | 
w:   |   | 
fe d6 z8  | z2 g2 a2 b2 z2 e2 f2 g2  | \
w:   |   | 
z2 d2 e2 f2 z2 c2 d2 e2  | z2 A2 B2 c2 d2 A2 B4  | 
w:   |   | 
^F2 G8-G2 z4  | G2 G2 A2 B2 c2 d2 ef ed  | \
w:   |  *  Ay rı lık  bü kü ver  | 
d12 z4  | z2 g4 f2 e2 d2 f4  | 
w:  di   |  boy  | 
ed d14  | z2 b2 g2 a2 f2 g2 e2 d2  | \
w:  nu mu    |  SAZ  | 
z2 g2 f2 e2 d2 c2 B2 A2  | G2 G2 A2 B2 c2 d2 ef ed  | 
w:   |  *  Ay rı lık  bü kü ver  | 
d12 z4  | z2 g4 f2 e2 d2 f4  | ed d14  | \
w:  di   |  boy  |  nu mu    | 
z2 b2 g2 a2 f2 g2 e2 d2  | z2 b2 g2 a2 f2 g2 e2 d2  | 
w:  SAZ  |   | 
.d4 .g4 .d4 .g4  | z4 f2 g2 e3d c4  | \
w:  Çıp lak  dağ lar   |  sa rı ver *  di   | 
z2 A2 B2 c2 d2 e2 f4  | (3efe d14  | 
w:  yo  |  lu *  *  mu    | 
z2 b2 g2 a2 f2 g2 e2 d2  | z2 b2 g2 a2 f2 g2 e2 d2  | \
w:  SAZ  |   | 
z2 d2 e2 =e2 .f2 de de de  | 
w:  O *  nu mu  SAZ  | 
f2 c4 d2 .e2 cd cd cd  | e2 B4 c2 d2 .G2 .B2 .d2  | \
w:  *  şu nu mu  SAZ  |  *  bu nu mu   SAZ  | 
z2 G2 A2 B2 d8  | 
w:  Öz lü yo rum   | 
z2 g4 e2 d4 A2 B2  | G6 BA GA Bc d4  | \
w:  İs *  tan bu lu  |  mu   SAZ  | 
z2 d2 e2 =e2 .f2 de de de  | 
w:  O *  nu mu  SAZ  | 
f2 c4 d2 .e2 cd cd cd  | e2 B4 c2 d2 .G2 .B2 .d2  | \
w:  *  şu nu mu  SAZ  |  *  bu nu mu   SAZ  | 
z2 G2 A2 B2 d8  | 
w:  Öz lü yo rum   | 
z2 g4 e2 d4 A2 B2  | G16  | z2 G2 A2 B2 G2 A2 B2 c2  | \
w:  İs *  tan bu lu  |  mu    |   | 
cB A8-A2 z4  | z2 A2 B2 c2 A2 B2 c2 d2  | 
w:   |   | 
fe d6 z8  | z2 g2 a2 b2 z2 e2 f2 g2  | \
w:   |   | 
z2 d2 e2 f2 z2 c2 d2 e2  | z2 A2 B2 c2 d2 A2 B4  | 
w:   |   | 
^F2 G8-G2 z4  | z2 G2 A2 B2 G2 A2 B2 c2  | \
w:   |   | 
cB A8-A2 z4  | z2 A2 B2 c2 A2 B2 c2 d2  | 
w:   |   | 
fe d6 z8  | z2 g2 a2 b2 z2 e2 f2 g2  | \
w:   |   | 
z2 d2 e2 f2 z2 c2 d2 e2  | z2 A2 B2 c2 d2 A2 B4  | 
w:   |   | 
^F2 G8-G2 z4  | .d2 .g4 .g2 .d4 .g4  | \
w:   |  SAZ  | 
.d2 .g4 .g2 .d4 .g4  | f2 g6 g2 ag g4  | \
w:   |  Şu  dağ la *  *  rı   | 
f2 ga g2 a2 g2 f_1/4e f4  | 
w:  a şa *  *  *  bil *  *  sem   | 
z2 b4 ba a3g g3f  | f3_1/4e e3d d2 c2 g2 ag  | \
w:  di  |  *  *  *  *  *  *  *  yo  | 
f2 g14  | gf _1/4ed cd ef ga fa g4  | 
w:  rum    |  SAZ  | 
f2 g6 g2 ag g4  | f2 ga g2 a2 g2 f_1/4e f4  | \
w:  Şu  dağ la *  *  rı   |  a şa *  *  *  bil *  *  sem   | 
z2 b4 ba a3g g3f  | 
w:  di  | 
f3_1/4e e3d d2 c2 g2 ag  | f2 g14  | \
w:  *  *  *  *  *  *  *  yo  |  rum    | 
gf _1/4ed cd ef ga fa g4  | 
w:  SAZ  | 
z2 G2 A2 B2 G2 A2 B2 c2  | cB A8-A2 z4  | \
w:   |   | 
z2 A2 B2 c2 A2 B2 c2 d2  | 
w:   | 
fe d6 z8  | z2 g2 a2 b2 z2 e2 f2 g2  | \
w:   |   | 
z2 d2 e2 f2 z2 c2 d2 e2  | z2 A2 B2 c2 d2 A2 B4  | 
w:   |   | 
^F2 G8-G2 z4  | z2 G2 A2 B2 G2 A2 B2 c2  | \
w:   |   | 
cB A8-A2 z4  | z2 A2 B2 c2 A2 B2 c2 d2  | 
w:   |   | 
fe d6 z8  | z2 g2 a2 b2 z2 e2 f2 g2  | \
w:   |   | 
z2 d2 e2 f2 z2 c2 d2 e2  | z2 A2 B2 c2 d2 A2 B4  | 
w:   |   | 
^F2 G8-G2 z4  | G2 G2 A2 B2 c2 d2 ef ed  | \
w:   |  *  Ay rı lık  bü kü ver  | 
d12 z4  | z2 g4 f2 e2 d2 f4  | 
w:  di   |  boy  | 
ed d14  | z2 b2 g2 a2 f2 g2 e2 d2  | \
w:  nu mu    |  SAZ  | 
z2 g2 f2 e2 d2 c2 B2 A2  | G2 G2 A2 B2 c2 d2 ef ed  | 
w:   |  *  Ay rı lık  bü kü ver  | 
d12 z4  | z2 g4 f2 e2 d2 f4  | ed d14  | \
w:  di   |  boy  |  nu mu    | 
z2 b2 g2 a2 f2 g2 e2 d2  | z2 b2 g2 a2 f2 g2 e2 d2  | 
w:  SAZ  |   | 
.d4 .g4 .d4 .g4  | z4 f2 g2 e3d c4  | \
w:  Çıp lak  dağ lar   |  sa rı ver *  di   | 
z2 A2 B2 c2 d2 e2 f4  | (3efe d14  | 
w:  yo  |  lu *  *  mu    | 
z2 b2 g2 a2 f2 g2 e2 d2  | z2 b2 g2 a2 f2 g2 e2 d2  | \
w:  SAZ  |   | 
z2 d2 e2 =e2 .f2 de de de  | 
w:  O *  nu mu  SAZ  | 
f2 c4 d2 .e2 cd cd cd  | e2 B4 c2 d2 .G2 .B2 .d2  | \
w:  *  şu nu mu  SAZ  |  *  bu nu mu   SAZ  | 
z2 G2 A2 B2 d8  | 
w:  Öz lü yo rum   | 
z2 g4 e2 d4 A2 B2  | G6 BA GA Bc d4  | \
w:  İs *  tan bu lu  |  mu   SAZ  | 
z2 d2 e2 =e2 .f2 de de de  | 
w:  O *  nu mu  SAZ  | 
f2 c4 d2 .e2 cd cd cd  | e2 B4 c2 d2 .G2 .B2 .d2  | \
w:  *  şu nu mu  SAZ  |  *  bu nu mu   SAZ  | 
z2 G2 A2 B2 d8  | 
w:  Öz lü yo rum   | 
z2 g4 e2 d4 A2 B2  | G16  | a2 b4 ba c'b ba b4  | \
w:  İs *  tan bu lu  |  mu    |  Sa na  ka *  dar   | 
g2 c'b a2 g2 fe ed d4  | 
w:  va ra *  *  *  bil *  *  *  sem   | 
z2 b2 a2 g2 f2 e2 g2 ed  | d16  | z4 d2 =e2 f2 fe f4  | \
w:  di *  *  *  *  *  yo  |  rum    |  Ku ca ğın *  *  da   | 
z2 _7/8g4 f2 e2 ed e4  | 
w:  ah   | 
z2 b2 a2 g2 f2 e2 d2 c2  | z2 g2 f2 e2 d2 c2 B2 c2  | \
w:  ö *  le bil *  sem   |  di  | 
cB A6 Ac BA GA Bc  | 
w:  yo *  rum   SAZ  | 
d2 G2 A2 B2 d8  | z2 g4 e2 d4 A2 B2  | \
w:  *  Öz lü yo rum   |  İs *  tan bu lu  | 
G6 BA GA Bc d4  | z4 d2 =e2 f2 fe f4  | 
w:  mu   SAZ  |  Ku ca ğın *  *  da   | 
z2 _7/8g4 f2 e2 ed e4  | z2 b2 a2 g2 f2 e2 d2 c2  | \
w:  ah   |  ö *  le bil *  sem   | 
z2 g2 f2 e2 d2 c2 B2 c2  | 
w:  di  | 
cB A6 Ac BA GA Bc  | d2 G2 A2 B2 d8  | \
w:  yo *  rum   SAZ  |  *  Öz lü yo rum   | 
z2 g4 e2 d4 A2 B2  | 
w:  İs *  tan bu lu  | 
G16  | f2 g4 g2 g8  | f2 g4 a2 f8  | z2 g2 f2 g2 f2 g2 f2 g2  | a16  | \
w:  mu    |  Gur bet  ka ra   |  has ret  ka ra   |  yol  *  *  *  *  *  ka  |  ra    | 
a2 b4 ag g8  | 
w:  Ü mit le *  rim_  | 
g2 a2 f2 =e2 d2 _ed d4  | z2 b2 a2 g2 f2 e2 g2 ed  | d16  | \
w:  a sıl *  *  mış *  *  lar   |  dağ *  *  *  *  *  lar   |  ra    | 
d2 d4 d2 g8  | 
w:  Se lâ mı mı   | 
z4 f2 g2 e3d c4  | z2 A2 B2 c2 d2 c2 B2 c2  | \
w:  se ri ver *  dim   |  yol   | 
cB A6 A2 BA GA Bc  | 
w:  la *  ra    | 
d2 G2 A2 B2 d8  | z2 g4 e2 d4 A2 B2  | \
w:  *  Öz lü yo rum   |  İs *  tan bu lu  | 
G6 BA GA Bc d4  | d2 d4 d2 g8  | 
w:  mu   SAZ  |  Se lâ mı mı   | 
z4 f2 g2 e3d c4  | z2 A2 B2 c2 d2 c2 B2 c2  | \
w:  se ri ver *  dim   |  yol   | 
cB A6 A2 BA GA Bc  | 
w:  la *  ra    | 
d2 G2 A2 B2 d8  | z2 g4 e2 d4 A2 B2  | G16  | |


